usr/share/icons/biglinux-icons-material-dark/22/actions/kdenlive-align-none.svg

<svg xmlns="http://www.w3.org/2000/svg" viewBox="0 0 22 22">
<defs id="defs3051">
<style id="current-color-scheme" type="text/css">
.ColorScheme-Text{color:#dedede}
</style>
</defs>
<path d="M6 3v6h13V3zm1 1h11v4H7zm-4 7v6h6v-6zm1 1h4v4H4zm9 1v6h6v-6zm1 1h4v4h-4z" class="ColorScheme-Text" style="fill:currentColor;fill-opacity:1;stroke:none"/>
</svg>

<svg xmlns="http://www.w3.org/2000/svg" viewBox="0 0 22 22">
  <defs id="defs3051">
    <style type="text/css" id="current-color-scheme">
      .ColorScheme-Text {
        color:#dedede;
      }
      </style>
  </defs>
 <path 
     style="fill:currentColor;fill-opacity:1;stroke:none" 
     d="M 6 3 L 6 9 L 19 9 L 19 3 L 6 3 z M 7 4 L 18 4 L 18 8 L 7 8 L 7 4 z M 3 11 L 3 17 L 9 17 L 9 11 L 3 11 z M 4 12 L 8 12 L 8 16 L 4 16 L 4 12 z M 13 13 L 13 19 L 19 19 L 19 13 L 13 13 z M 14 14 L 18 14 L 18 18 L 14 18 L 14 14 z "
     class="ColorScheme-Text"
     />
</svg>
